Numix/16/status/indicator-keyboard-Te-1.svg

<?xml version="1.0" encoding="UTF-8" standalone="no"?>
<svg
   xmlns:dc="http://purl.org/dc/elements/1.1/"
   xmlns:cc="http://creativecommons.org/ns#"
   xmlns:rdf="http://www.w3.org/1999/02/22-rdf-syntax-ns#"
   xmlns:svg="http://www.w3.org/2000/svg"
   xmlns="http://www.w3.org/2000/svg"
   xmlns:sodipodi="http://sodipodi.sourceforge.net/DTD/sodipodi-0.dtd"
   xmlns:inkscape="http://www.inkscape.org/namespaces/inkscape"
   viewBox="0 0 16 16"
   id="svg2"
   version="1.1"
   inkscape:version="0.91 r13725"
   sodipodi:docname="indicator-keyboard-Te-1.svg">
  <metadata
     id="metadata14">
    <rdf:RDF>
      <cc:Work
         rdf:about="">
        <dc:format>image/svg+xml</dc:format>
        <dc:type
           rdf:resource="http://purl.org/dc/dcmitype/StillImage" />
      </cc:Work>
    </rdf:RDF>
  </metadata>
  <defs
     id="defs12" />
  <sodipodi:namedview
     pagecolor="#ffffff"
     bordercolor="#666666"
     borderopacity="1"
     objecttolerance="10"
     gridtolerance="10"
     guidetolerance="10"
     inkscape:pageopacity="0"
     inkscape:pageshadow="2"
     inkscape:window-width="640"
     inkscape:window-height="480"
     id="namedview10"
     showgrid="false"
     inkscape:zoom="14.75"
     inkscape:cx="8"
     inkscape:cy="8"
     inkscape:window-x="75"
     inkscape:window-y="34"
     inkscape:window-maximized="0"
     inkscape:current-layer="svg2" />
  <path
     style="fill:#ececec;fill-opacity:1"
     d="M 1.5996094 0 C 0.71320937 2.9605947e-16 0 0.71320937 0 1.5996094 L 0 14.400391 C 2.9605947e-16 15.286791 0.71320937 16 1.5996094 16 L 14.400391 16 C 15.286791 16 16 15.286791 16 14.400391 L 16 1.5996094 C 16 0.71320937 15.286791 0 14.400391 0 L 1.5996094 0 z M 2.3105469 4.859375 L 6.9199219 4.859375 L 6.9199219 5.390625 L 4.921875 5.390625 L 4.921875 11.095703 L 4.3085938 11.095703 L 4.3085938 5.390625 L 2.3105469 5.390625 L 2.3105469 4.859375 z M 9.2128906 6.3359375 C 9.7828908 6.3359375 10.236266 6.5205781 10.572266 6.8925781 C 10.914266 7.2645781 11.085937 7.8373281 11.085938 8.6113281 C 11.085938 8.6593281 11.082172 8.7078594 11.076172 8.7558594 C 11.076172 8.8038594 11.072406 8.848625 11.066406 8.890625 L 7.8007812 8.890625 C 7.8187812 9.460625 7.9586563 9.8990779 8.2226562 10.205078 C 8.4866562 10.511078 8.9064219 10.664062 9.4824219 10.664062 C 9.8004219 10.664062 10.054234 10.634219 10.240234 10.574219 C 10.426234 10.514219 10.560531 10.463875 10.644531 10.421875 L 10.751953 10.925781 C 10.667953 10.973781 10.509391 11.029703 10.275391 11.095703 C 10.04739 11.161703 9.7768437 11.195312 9.4648438 11.195312 C 9.0568438 11.195312 8.709875 11.135625 8.421875 11.015625 C 8.133875 10.895625 7.8969375 10.727719 7.7109375 10.511719 C 7.5249375 10.295719 7.3886875 10.040094 7.3046875 9.7460938 C 7.2206875 9.4460938 7.1796875 9.119625 7.1796875 8.765625 C 7.1796875 8.357625 7.2356094 8.003125 7.3496094 7.703125 C 7.4696094 7.397125 7.6225938 7.1415 7.8085938 6.9375 C 8.0005937 6.7335 8.2170313 6.5842812 8.4570312 6.4882812 C 8.7030313 6.3862812 8.9548906 6.3359375 9.2128906 6.3359375 z M 9.2226562 6.8574219 C 9.0126562 6.8574219 8.82425 6.8984219 8.65625 6.9824219 C 8.49425 7.0664219 8.3486563 7.1802187 8.2226562 7.3242188 C 8.1026562 7.4622188 8.0075469 7.6245469 7.9355469 7.8105469 C 7.8695469 7.9965469 7.8303594 8.1924844 7.8183594 8.3964844 L 10.482422 8.3964844 C 10.470422 7.9104844 10.356625 7.5317187 10.140625 7.2617188 C 9.9246248 6.9917187 9.6186563 6.8574219 9.2226562 6.8574219 z M 13.419922 8.8417969 L 13.689453 8.8417969 L 13.689453 12.896484 L 13.308594 12.896484 L 13.308594 9.421875 C 13.265694 9.468675 13.208872 9.5157063 13.138672 9.5664062 C 13.072372 9.6171063 12.995956 9.66805 12.910156 9.71875 C 12.824356 9.76555 12.736178 9.812575 12.642578 9.859375 C 12.548978 9.902275 12.454928 9.9375437 12.361328 9.9648438 L 12.25 9.671875 C 12.484 9.5899751 12.6917 9.4880813 12.875 9.3632812 C 13.0583 9.2345813 13.240522 9.0601969 13.419922 8.8417969 z "
     id="path4" />
</svg>

<svg xmlns="http://www.w3.org/2000/svg" viewBox="0 0 16 16">
 <path d="m 1.6 0 c -0.886 0 -1.6 0.713 -1.6 1.6 l 0 12.801 c 0 0.886 0.713 1.6 1.6 1.6 l 12.801 0 c 0.886 0 1.6 -0.713 1.6 -1.6 l 0 -12.801 c 0 -0.886 -0.713 -1.6 -1.6 -1.6 l -12.801 0 z m 0.711 4.859 l 4.609 0 l 0 0.531 l -1.998 0 l 0 5.705 l -0.613 0 l 0 -5.705 l -1.998 0 l 0 -0.531 z m 6.902 1.477 c 0.57 0 1.023 0.185 1.359 0.557 c 0.342 0.372 0.514 0.945 0.514 1.719 c 0 0.048 -0.004 0.097 -0.01 0.145 c 0 0.048 -0.004 0.093 -0.01 0.135 l -3.266 0 c 0.018 0.57 0.158 1.01 0.422 1.314 c 0.264 0.306 0.684 0.459 1.26 0.459 c 0.318 0 0.572 -0.03 0.758 -0.09 c 0.186 -0.06 0.32 -0.11 0.404 -0.152 l 0.107 0.504 c -0.084 0.048 -0.243 0.104 -0.477 0.17 c -0.228 0.066 -0.499 0.1 -0.811 0.1 c -0.408 0 -0.755 -0.06 -1.043 -0.18 c -0.288 -0.12 -0.525 -0.288 -0.711 -0.504 c -0.186 -0.216 -0.322 -0.472 -0.406 -0.766 c -0.084 -0.3 -0.125 -0.626 -0.125 -0.98 c 0 -0.408 0.056 -0.762 0.17 -1.063 c 0.12 -0.306 0.273 -0.562 0.459 -0.766 c 0.192 -0.204 0.408 -0.353 0.648 -0.449 c 0.246 -0.102 0.498 -0.152 0.756 -0.152 z m 0.01 0.521 c -0.21 0 -0.398 0.041 -0.566 0.125 c -0.162 0.084 -0.308 0.198 -0.434 0.342 c -0.12 0.138 -0.215 0.3 -0.287 0.486 c -0.066 0.186 -0.105 0.382 -0.117 0.586 l 2.664 0 c -0.012 -0.486 -0.126 -0.865 -0.342 -1.135 c -0.216 -0.27 -0.522 -0.404 -0.918 -0.404 z m 4.197 1.984 l 0.27 0 l 0 4.055 l -0.381 0 l 0 -3.475 c -0.043 0.047 -0.1 0.094 -0.17 0.145 c -0.066 0.051 -0.143 0.102 -0.229 0.152 c -0.086 0.047 -0.174 0.094 -0.268 0.141 c -0.094 0.043 -0.188 0.078 -0.281 0.105 l -0.111 -0.293 c 0.234 -0.082 0.442 -0.184 0.625 -0.309 c 0.183 -0.129 0.366 -0.303 0.545 -0.521 z" style="fill:#ececec;fill-opacity:1"/>
</svg>
